X: 31
T: The Paragon Rag
C: Scott Joplin
%%abc-version 2.0
%%abcx-abcm2ps-target-version 5.9.1 (29 Sep 2008)
%%abc-creator hum2abc beta
%%abcx-conversion-date 2021/07/20 09:00:56
%%abc-copyright 2021 Craig Stuart Sapp
%%abc-edited-by Craig Stuart Sapp
%%abc-edited-by Craig Stuart Sapp
%%abcx-initial-encoding-date 2005/03/31
%%humdrum-veritas 1307660657
%%humdrum-veritas-data 3691728406
%%removed 0's from note length
%%linebreak <none>
%%barnumbers 0
L: 1/8
M: 2/4
N: Derived from paragon.krn
Q: "Trio." 1/4=100
%%staves {1 2}
V: 1 clef=treble
V: 2 clef=bass
K: G
[V:1] g>e d/B/G | 
[V:2] G>E D/B,/G, | 
[V:1] G>E D/B,/G, | 
[V:2] G,>E, D,/B,,/G,, | 
[V:1] D/F/A F/=F/E/_E/ | 
[V:2] D,/F,/A, F,/=F,/E,/_E,/ | 
[V:1] D!accent![dD] !accent![eE]!accent![fF] ]|:  
[V:2] D,!accent!D, !accent!C,!accent!A,, ]|:  
[V:1] !accent![gBG]>e d/B/G | 
[V:2] !accent!G,,[B,G,D,] D,,[B,G,D,] | 
[V:1] [gBG]>e d/B/G/=F/ | 
[V:2] G,,[B,G,D,] B,,[B,G,D,] | 
[V:1] E/[cG]_E/- G/A/^A/B/- & E>_E E3/[G/D/]- | 
[V:2] C,[CG,E,] C,[CG,_E,] | 
[V:1] B/d/g/c'/ ba & [G2D2][fd][fc] | 
[V:2] G,,[B,G,D,] [D,D,,][CF,D,] | 
[V:1] [gB]>e d/B/G | 
[V:2] [G,G,,][B,G,D,] D,,[B,G,D,] | 
[V:1] [gBG]>e d/B/G/E/ | 
[V:2] [G,G,,][B,G,D,] [B,B,,][_B,_B,,] | 
[V:1] F/A/d/f/- f/a/e & F>A- AG | 
[V:2] [A,A,,][DA,F,] A,,[^CA,G,] | 
[V:1] [dF]!accent![dD] !accent![eE]!accent![fF] | 
[V:2] [DA,F,D,]!accent!D, !accent!C,!accent!A,, | 
[V:1] !accent![gBG]>e d/B/G | 
[V:2] !accent!G,,[B,G,D,] D,,[B,G,D,] | 
[V:1] [gBG]>e d/B/G/=F/ | 
[V:2] G,,[B,G,D,] B,,[B,G,D,] | 
[V:1] E/[cG]_E/- G/A/^A/[B/G/]- & E>_E E3/D/- | 
[V:2] C,[CG,E,] C,[CG,_E,] | 
[V:1] [B/G/D/]D/G/B/ [dGD][BGD] | 
[V:2] G,,[B,G,D,] B,,[B,G,D,] | 
[V:1] E/[cG]_E/- G/A/^A/B/- & E>_E E3/[G/D/]- | 
[V:2] C,[CG,E,] ^C,[^A,G,] | 
[V:1] [B/G/D/]D/G/B/ [e^AG][dBG] | 
[V:2] D,[B,G,] ^C,D, | 
[V:1] [d/B/G/][BGD][B/G/^C/]- B/G/A & x2[GC] [F=C] |[1 
[V:2] [D,D,,][^D,D,,] [E,E,,][=D,=D,,] | 
[V:1] [GB,]!accent![dD] !accent![eE]!accent![fF] :|][2 
[V:2] [G,G,,]!accent!D, !accent!C,!accent!A,, :|]  
[V:1] [GB,]!accent![gG] !accent![fF]!accent![=f=F] ]|: 
[V:2] [G,G,,]!accent![G,G,,] !accent![A,A,,]!accent![B,B,,] ]|:  
[V:1] e/G/c/e/-[e2G2E2]- & E>[GE]-x2 | 
[V:2] [CC,]G, [C/C,/][G,/G,,/][A,/A,,/][B,/B,,/] | 
[V:1] [eGE][fF] [gG][eE] | 
[V:2] [CC,][DD,] [EE,][CC,] | 
[V:1] z [e'/^a/][d'/b/]- [d'/b/]e/[bg] & [d4G4D4-] | 
[V:2] [B,B,,][B,G,D,] [D,D,,][B,G,D,] | 
[V:1] [e/^A/][dB]E/ [BG][dB^E] & D3D | 
[V:2] [G,G,,][B,G,D,] [D,D,,][^G,^G,,] | 
[V:1] [d/c/F/D/]F/A/[d/c/F/D/]-[d2c2F2D2]- | 
[V:2] [A,A,,][CF,D,] [F,/F,,/][=F,/=F,,/][E,/E,,/][_E,/_E,,/] | 
[V:1] [d/c/]c/A/B/ [cFD][^cGE] & [FD][FD]x2 | 
[V:2] [D,D,,][CC,] [A,A,,][^A,^A,,] | 
[V:1] z [e'/^a/][d'/b/]- [d'/b/]e/[bg] & [d4G4D4-] | 
[V:2] [B,B,,][B,G,D,] [D,D,,][B,G,D,] | 
[V:1] [e/^A/][dB]E/ [BG][B=F] & D3=F | 
[V:2] [G,G,,][B,G,D,] D,[B,G,] | 
[V:1] B/A/E/G/-[G2E2]- & E>E-x2 | 
[V:2] x2C,/G,/C/D/ & C,[CG,E,]C,2- | 
[V:1] [GE][GE] A/^AB/- & x2_E3/[G/D/]- | 
[V:2] EC C, x & C,2C,[CG,_E,] | 
[V:1] z [e'/^a/][d'/b/]- [d'/b/]e/[bg] & [B4G4D4-] | 
[V:2] G,,[B,G,D,] [D,D,,][B,G,D,] | 
[V:1] [e/^A/][dB]E/ [B/G/]d[e/^c/] & D2-D/GG/ | 
[V:2] [G,G,,][B,G,D,] [B,B,,][_B,_B,,] | 
[V:1] [f/=c/F/][^e/^E/][f/c/F/][a/c/A/]-[a2c2A2]- | 
[V:2] [A,A,,][DD,] [C/C,/][B,/B,,/][A,/A,,/][G,/G,,/] | 
[V:1] x2e/d/E/F/ & [a/c/A/][c/A/][d/B/][e/c/]- cC | 
[V:2] [F,F,,][CF,D,] [D,D,,][F,D,] | 
[V:1] [GB,][e/^A/][d/B/]- [d/B/][D/B/][=AC] |[1 
[V:2] [G,2G,,2][D,D,,][F,D,] | 
[V:1] [GB,]!accent![gG] !accent![fF]!accent![=f=F] :|][2 
[V:2] [G,G,,]!accent![G,G,,] !accent![A,A,,]!accent![B,B,,] :|]  
[V:1] [GB,]!accent![dD] !accent![eE]!accent![fF] | 
[V:2] [G,G,,]!accent!D, !accent!C,!accent!A,, | 
[V:1] !accent![gBG]>e d/B/G | 
[V:2] !accent!G,,[B,G,D,] D,,[B,G,D,] | 
[V:1] [gBG]>e d/B/G/=F/ | 
[V:2] G,,[B,G,D,] B,,[B,G,D,] | 
[V:1] E/[cG]_E/- G/A/^A/B/- & E>_E E3/[G/D/]- | 
[V:2] C,[CG,E,] C,[CG,_E,] | 
[V:1] B/d/g/b/ ba & [G2D2][fd][fc] | 
[V:2] G,,[B,G,D,] [D,D,,][DF,D,] | 
[V:1] [gB]>e d/B/G | 
[V:2] [G,G,,][B,G,D,] D,,[B,G,D,] | 
[V:1] [gBG]>e d/B/G/E/ | 
[V:2] [G,G,,][B,G,D,] [B,B,,][_B,_B,,] | 
[V:1] F/A/d/f/- f/a/e & F>A- AG | 
[V:2] [A,A,,][DA,F,] A,,[^CA,G,] | 
[V:1] [dF]!accent![dD] !accent![eE]!accent![fF] | 
[V:2] [DA,F,D,]!accent!D, !accent!C,!accent!A,, | 
[V:1] !accent![gBG]>e d/B/G | 
[V:2] !accent!G,,[B,G,D,] D,,[B,G,D,] | 
[V:1] [gBG]>e d/B/G/=F/ | 
[V:2] G,,[B,G,D,] B,,[B,G,D,] | 
[V:1] E/[cG]_E/- G/A/^A/B/- & E>_E E3/[G/D/]- | 
[V:2] C,[CG,E,] C,[CG,_E,] | 
[V:1] [B/G/D/]D/G/B/[d2G2D2] | 
[V:2] G,,[B,G,D,] B,,[B,G,D,] | 
[V:1] E/[cG]_E/- G/A/^A/B/- & E>_E E3/[G/D/]- | 
[V:2] C,[CG,E,] ^C,[^A,G,] | 
[V:1] [B/G/D/]D/G/B/ [e^AG][dBG] | 
[V:2] D,[B,G,] ^C,D, | 
[V:1] [d/B/G/][BGD][B/G/^C/]- B/G/A & x2[GC][F=C] | 
[V:2] [D,D,,][^D,^D,,] [E,E,,][=D,=D,,] | 
[V:1] [G2B,2][gdBG] | 
[V:2] [G,G,,]D,G,, | 
[V:1]  [K:C] [M:2/4]D/^D/ ]|:  
[V:2]  [K:C] [M:2/4][G,=F,B,,] ]|:  
[V:1] E>G F/cF/ | 
[V:2] [G,E,C,][G,E,C,] [A,F,C,][_A,F,C,] | 
[V:1] E>G F/cF/ | 
[V:2] [G,E,C,][G,E,C,] [A,F,C,][_A,F,C,] | 
[V:1] E/G/e/c/ A/G/E/C/ | 
[V:2] [G,E,C,][G,E,C,] [G,E,C,][G,E,C,] | 
[V:1] B,/^A,/B,/G/- G/F/D | 
[V:2] [G,F,D,][G,F,D,] [G,F,B,,][G,F,B,,] | 
[V:1] B,>G F/DB,/ | 
[V:2] [F,D,G,,][F,D,G,,] [F,D,^G,,][F,D,G,,] | 
[V:1] C>D E/AE/ | 
[V:2] [E,C,A,,][E,C,A,,] [A,E,C,][CA,E,] | 
[V:1] F/G/A/d/ c/B/c/A/ | 
[V:2] [CA,D,][C^F,D,] [A,F,D,][A,F,D,] | 
[V:1] A/G/=F/D/- D/^C/D/^D/ | 
[V:2] [B,G,=F,D,][B,G,F,D,] [G,F,B,,][G,F,B,,] | 
[V:1] E>G F/cF/ | 
[V:2] [G,E,C,][G,E,C,] [A,F,C,][_A,F,C,] | 
[V:1] E>G F/cF/ | 
[V:2] [G,E,C,][G,E,C,] [A,F,C,][_A,F,C,] | 
[V:1] E/F/^F/G/ A/_B/A/E/ | 
[V:2] [G,E,C,][G,E,C,] [G,E,^C,][A,G,C,] | 
[V:1] F/E/F/A/- A/G/F | 
[V:2] [A,F,D,][A,F,D,] [DA,F,][DA,F,] | 
[V:1] ^F/A/c/^d/ F/A/c/d/ | 
[V:2] ^D/C/A,/^F,/ D/C/A,/F,/ | 
[V:1] e/c/^F/G/ e/c/F/G/ | 
[V:2] G,/C/^D/E/ G,/C/D/E/ | 
[V:1] D/E/F/G/- G/A/[BF] |[1 
[V:2] G,[DB,] G,,[DG,] | 
[V:1] [cE]A/G/- G/G/D/^D/ :|][2 
[V:2] [CG,C,]A,/G,/- G,[G,F,B,,] :|]  
[V:1] [cE]G/^F/ G/^G/A/A/ ]|: 
[V:2] [CG,C,] z E,^C, ]|:  
[V:1] B/^A/B/c/ d/e/f/g/ | 
[V:2] D,[FB,G,] G,,[FB,G,] | 
[V:1] a/B/d/[g/f/B/]- [g/f/B/]f/d/B/ | 
[V:2] D,[FB,G,] [G,G,,][F,F,,] | 
[V:1] c/B/c/d/ e/f/^f/g/ | 
[V:2] [E,E,,][ECG,] G,,[ECG,] | 
[V:1] a/c/e/[g/e/c/]- [g/e/c/]e/c | 
[V:2] C,[ECG,] _B,,[ECG,] | 
[V:1] ^c/^B/c/d/ e/^d/e/c/ | 
[V:2] A,,[^CA,G,] G,,[CA,E,] | 
[V:1] d/e/d/^c/ d/e/f/a/ | 
[V:2] F,,[DA,F,] D,[DA,F,] | 
[V:1] g/f/d/G/- G/F/G/F/ | 
[V:2] B,,[B,G,F,] G,,[B,G,F,] | 
[V:1] E/^DE/- E/G/A/^A/ | 
[V:2] [C/G,/C,/][C^F,C,][C/G,/C,/]- [CG,C,]^C, | 
[V:1] B/^A/B/c/ d/e/f/g/ | 
[V:2] D,[FB,G,] G,,[FB,G,] | 
[V:1] a/B/d/[g/f/B/]- [g/f/B/]f/d/B/ | 
[V:2] D,[FB,] [G,G,,][F,F,,] | 
[V:1] c/B/c/d/ e/f/^f/g/ | 
[V:2] [E,E,,][ECG,] G,,[ECG,] | 
[V:1] a/c/e/[g/e/c/]- [g/e/c/]e/c | 
[V:2] C,[ECG,] E,[ECG,] | 
[V:1] c/_d/_e/c/ _B/=A/B/=B/ & _A2G2 | 
[V:2] _E,[C_A,] E,[_DG,] | 
[V:1] c/_d/c/B/ c/=d/e/g/ & _A2G2 | 
[V:2] _E,[C_A,] =E,[CG,] | 
[V:1] f/e/d/G/- G/[G/e/][Fd] |[1 
[V:2] D,[FB,G,] G,,[B,G,] | 
[V:1] [cE]G/^F/ G/^G/A/^A/ :|][2 
[V:2] [CG,C,] z E,^C, :|]  
[V:1] [c2E2]!accent![c'gec] z |]  
[V:2] [CG,C,][G,G,,]!accent![C,C,,] z |]  


